X: 20913
T: ARISE LOVELY BEAM OF THE TWEED
C: John Ross.
Q: "Slow."
%R: air, waltz
B: W. Hamilton "Universal Tune-Book" Vol. 2 Glasgow 1846 p.91 #3
S: http://s3-eu-west-1.amazonaws.com/itma.dl.printmaterial/book_pdfs/hamiltonvol2web.pdf
Z: 2016 John Chambers <jc:trillian.mit.edu>
M: 3/8
L: 1/16
K: C
% - - - - - - - - - - - - - - - - - - - - - - - - -
c2 |\
e2f2d2 | g4f>e | d2f2B2 | c4G>G |\
A2c2f2 | G2c2e2 | d4d2 | g2^f2e2 |\
d2c2B2 | A2B2c2 | B4d2 | e4z2 |\
z2z2e2 | d4z2 | z2z2d2 | e2^f2g2 |\
c3dB2 |
A4D2 | E2E2^F2 |G2G2A2 |\
B2c2d2 | e4e2 | d2^f2g2 | B3cA2 | G4 |] G2 |\
c2c2d2 | e2f2d2 | c2B2A2 | G4G>G |\
A2c2f2 | G2c2e2 | d4g2 | g2e2a2 |\
g2e2c2 |
g2e2a2 | g4G2 | d4z2 |\
z2z2G2 | e4z2 | z2z2G2 | f2d2f2 |\
e2c2e2 | d4g2 | g2e2a2 | g2e2c2 |\
g2e2a2 | Hg4G2 | A2f2d2 | c3dB2 |\
c4c2 | g2(fe)(dc) | e3fd2 | c4z2 |]
% - - - - - - - - - - - - - - - - - - - - - - - - -

%%sep 1 1 500
%%sep 1 1 500

